;FLAVOR:Marlin
;TIME:385
;Filament used: 0.11545m
;Layer height: 0.2
;MINX:0.426
;MINY:0.342
;MINZ:0.2
;MAXX:219.833
;MAXY:219.665
;MAXZ:0.2
;Generated with Cura_SteamEngine 4.12.1
M140 S65
M105
M190 S65
M104 S200
M105
M109 S200
M82 ;absolute extrusion mode
; Ender 3 Custom Start G-code
G92 E0 ; Reset Extruder
G28 ; Home all axes
G1 Z2.0 F3000 ; Move Z Axis up little to prevent scratching of Heat Bed
G1 X0.1 Y20 Z0.3 F5000.0 ; Move to start position
G1 X0.1 Y200.0 Z0.3 F1500.0 E15 ; Draw the first line
G1 X0.4 Y200.0 Z0.3 F5000.0 ; Move to side a little
G1 X0.4 Y20 Z0.3 F1500.0 E30 ; Draw the second line
G92 E0 ; Reset Extruder
G1 Z2.0 F3000 ; Move Z Axis up little to prevent scratching of Heat Bed
G1 X5 Y20 Z0.3 F5000.0 ; Move over to prevent blob squish
G92 E0
G92 E0
G1 F1500 E-6.5
;LAYER_COUNT:1
;LAYER:0
M107
G0 F6000 X49.364 Y50.087 Z0.2
;TYPE:SKIRT
G1 F1500 E0
G1 F600 X50.018 Y49.465 E0.03002
G1 X50.725 Y48.903 E0.06006
G1 X51.479 Y48.405 E0.09011
G1 X52.274 Y47.977 E0.12014
G1 X53.103 Y47.62 E0.15016
G1 X53.961 Y47.338 E0.1802
G1 X54.841 Y47.133 E0.21026
G1 X55.735 Y47.007 E0.24028
G1 X56.637 Y46.96 E0.27032
G1 X57.539 Y46.994 E0.30035
G1 X58.435 Y47.106 E0.33038
G1 X59.318 Y47.298 E0.36043
G1 X60.18 Y47.567 E0.39047
G1 X61.015 Y47.912 E0.42052
G1 X62.186 Y48.553 E0.46492
G1 X62.858 Y48.98 E0.4914
G1 X65.051 Y50.291 E0.57638
G1 X67.285 Y51.543 E0.66156
G1 X69.517 Y52.711 E0.74534
G1 X71.794 Y53.822 E0.82961
G1 X74.114 Y54.873 E0.91432
G1 X76.459 Y55.858 E0.99892
G1 X78.836 Y56.779 E1.0837
G1 X81.213 Y57.619 E1.16756
G1 X83.633 Y58.402 E1.25215
G1 X86.089 Y59.119 E1.33725
G1 X88.536 Y59.759 E1.42138
G1 X91.009 Y60.333 E1.50581
G1 X93.512 Y60.84 E1.59075
G1 X96.005 Y61.269 E1.67489
G1 X98.504 Y61.628 E1.75886
G1 X101.025 Y61.917 E1.84326
G1 X103.56 Y62.137 E1.92789
G1 X106.09 Y62.284 E2.01218
G1 X108.656 Y62.36 E2.09756
G1 X111.191 Y62.364 E2.18188
G1 X113.722 Y62.296 E2.26609
G1 X116.252 Y62.156 E2.35037
G1 X118.753 Y61.947 E2.43384
G1 X121.328 Y61.658 E2.52002
G1 X123.807 Y61.308 E2.60329
G1 X126.335 Y60.879 E2.68858
G1 X128.816 Y60.386 E2.77271
G1 X131.283 Y59.821 E2.85689
G1 X133.731 Y59.188 E2.94098
G1 X136.212 Y58.47 E3.02689
G1 X138.622 Y57.699 E3.11105
G1 X140.987 Y56.868 E3.19442
G1 X143.374 Y55.951 E3.27947
G1 X145.716 Y54.978 E3.36382
G1 X148.04 Y53.931 E3.4486
G1 X150.344 Y52.816 E3.53373
G1 X152.583 Y51.653 E3.61765
G1 X154.768 Y50.436 E3.70084
G1 X156.992 Y49.115 E3.78687
G1 X157.343 Y48.894 E3.80067
G1 X158.128 Y48.448 E3.8307
G1 X158.95 Y48.073 E3.86075
G1 X159.801 Y47.772 E3.89077
G1 X160.676 Y47.547 E3.92082
G1 X161.567 Y47.401 E3.95085
G1 X162.468 Y47.334 E3.9809
G1 X163.371 Y47.347 E4.01093
G1 X164.269 Y47.439 E4.04096
G1 X165.156 Y47.611 E4.07101
G1 X166.024 Y47.861 E4.10105
G1 X166.866 Y48.186 E4.13107
G1 X167.676 Y48.585 E4.1611
G1 X168.448 Y49.054 E4.19115
G1 X169.176 Y49.589 E4.2212
G1 X169.853 Y50.186 E4.25122
G1 X170.475 Y50.841 E4.28126
G1 X171.036 Y51.549 E4.31131
G1 X171.533 Y52.303 E4.34134
G1 X171.961 Y53.098 E4.37137
G1 X172.316 Y53.929 E4.40143
G1 X172.597 Y54.787 E4.43146
G1 X172.802 Y55.667 E4.46151
G1 X172.927 Y56.561 E4.49153
G1 X172.973 Y57.463 E4.52157
G1 X172.939 Y58.365 E4.55159
G1 X172.825 Y59.261 E4.58164
G1 X172.632 Y60.144 E4.6117
G1 X172.362 Y61.005 E4.64171
G1 X172.017 Y61.84 E4.67176
G1 X171.521 Y62.774 E4.70693
G1 X170.23 Y64.928 E4.79046
G1 X168.996 Y67.124 E4.87424
G1 X167.798 Y69.407 E4.95999
G1 X166.692 Y71.668 E5.04371
G1 X165.645 Y73.973 E5.12791
G1 X164.643 Y76.349 E5.21368
G1 X163.743 Y78.673 E5.29657
G1 X162.882 Y81.094 E5.38203
G1 X162.111 Y83.473 E5.46521
G1 X161.388 Y85.938 E5.55065
G1 X160.745 Y88.383 E5.63473
G1 X160.155 Y90.912 E5.72111
G1 X159.665 Y93.335 E5.80333
G1 X159.227 Y95.854 E5.88837
G1 X158.861 Y98.378 E5.97319
G1 X158.57 Y100.891 E6.05733
G1 X158.346 Y103.437 E6.14234
G1 X158.199 Y105.948 E6.226
G1 X158.121 Y108.491 E6.31062
G1 X158.114 Y111.025 E6.3949
G1 X158.181 Y113.592 E6.48031
G1 X158.318 Y116.121 E6.56455
G1 X158.524 Y118.62 E6.64795
G1 X158.807 Y121.167 E6.73318
G1 X159.163 Y123.712 E6.81865
G1 X159.58 Y126.181 E6.90194
G1 X160.073 Y128.668 E6.98626
G1 X160.633 Y131.127 E7.07014
G1 X161.276 Y133.628 E7.15603
G1 X161.971 Y136.041 E7.23955
G1 X162.748 Y138.473 E7.32447
G1 X163.592 Y140.885 E7.40946
G1 X164.488 Y143.227 E7.49286
G1 X165.471 Y145.594 E7.57811
G1 X166.516 Y147.924 E7.66304
G1 X167.611 Y150.189 E7.74672
G1 X168.768 Y152.421 E7.83034
G1 X170.008 Y154.656 E7.91535
G1 X171.321 Y156.871 E8.00099
G1 X171.535 Y157.21 E8.01432
G1 X171.983 Y157.994 E8.04436
G1 X172.359 Y158.815 E8.07439
G1 X172.661 Y159.666 E8.10442
G1 X172.887 Y160.541 E8.13448
G1 X173.035 Y161.432 E8.16452
G1 X173.103 Y162.332 E8.19454
G1 X173.091 Y163.235 E8.22458
G1 X173 Y164.134 E8.25463
G1 X172.829 Y165.021 E8.28468
G1 X172.581 Y165.889 E8.3147
G1 X172.257 Y166.732 E8.34474
G1 X171.859 Y167.543 E8.37479
G1 X171.391 Y168.315 E8.40481
G1 X170.857 Y169.043 E8.43484
G1 X170.261 Y169.722 E8.46489
G1 X169.607 Y170.344 E8.49491
G1 X168.9 Y170.907 E8.52497
G1 X168.146 Y171.404 E8.55501
G1 X167.352 Y171.833 E8.58502
G1 X166.522 Y172.19 E8.61508
G1 X165.664 Y172.473 E8.64512
G1 X164.785 Y172.678 E8.67514
G1 X163.891 Y172.805 E8.70518
G1 X162.989 Y172.852 E8.73522
G1 X162.086 Y172.819 E8.76527
G1 X161.19 Y172.706 E8.79531
G1 X160.307 Y172.515 E8.82536
G1 X159.445 Y172.246 E8.85539
G1 X158.61 Y171.902 E8.88543
G1 X157.553 Y171.333 E8.92536
G1 X156.206 Y170.502 E8.978
G1 X153.993 Y169.222 E9.06303
G1 X151.778 Y168.023 E9.1468
G1 X149.503 Y166.874 E9.23157
G1 X147.201 Y165.79 E9.3162
G1 X144.868 Y164.773 E9.40085
G1 X142.506 Y163.82 E9.48556
G1 X140.137 Y162.943 E9.56958
G1 X137.739 Y162.131 E9.65378
G1 X135.311 Y161.384 E9.73828
G1 X132.858 Y160.705 E9.82293
G1 X130.355 Y160.087 E9.90868
G1 X127.903 Y159.557 E9.99212
G1 X125.429 Y159.094 E10.07583
G1 X122.89 Y158.693 E10.16133
G1 X120.393 Y158.371 E10.24506
G1 X117.83 Y158.113 E10.33074
G1 X115.327 Y157.932 E10.41421
G1 X112.805 Y157.822 E10.49817
G1 X110.231 Y157.782 E10.58379
G1 X107.695 Y157.815 E10.66815
G1 X105.165 Y157.919 E10.75237
G1 X102.642 Y158.094 E10.83648
G1 X100.118 Y158.342 E10.92084
G1 X97.584 Y158.663 E11.00579
G1 X95.071 Y159.054 E11.09038
G1 X92.599 Y159.51 E11.17399
G1 X90.125 Y160.039 E11.25813
G1 X87.6 Y160.655 E11.34458
G1 X85.195 Y161.315 E11.42752
G1 X82.737 Y162.063 E11.51298
G1 X80.351 Y162.864 E11.59669
G1 X77.969 Y163.739 E11.68109
G1 X75.599 Y164.688 E11.766
G1 X73.262 Y165.7 E11.85071
G1 X70.989 Y166.764 E11.93418
G1 X68.664 Y167.93 E12.02069
G1 X66.48 Y169.106 E12.10319
G1 X64.261 Y170.382 E12.18833
G1 X62.244 Y171.619 E12.26702
G1 X61.454 Y172.057 E12.29707
G1 X60.628 Y172.422 E12.3271
G1 X59.773 Y172.714 E12.35715
G1 X58.896 Y172.928 E12.38718
G1 X58.003 Y173.065 E12.41723
G1 X57.102 Y173.121 E12.44725
G1 X56.199 Y173.098 E12.4773
G1 X55.302 Y172.995 E12.50733
G1 X54.417 Y172.813 E12.53738
G1 X53.552 Y172.553 E12.56742
G1 X52.714 Y172.218 E12.59744
G1 X51.908 Y171.811 E12.62747
G1 X51.141 Y171.333 E12.65753
G1 X50.42 Y170.79 E12.68755
G1 X49.75 Y170.184 E12.71759
G1 X49.135 Y169.522 E12.74765
G1 X48.582 Y168.808 E12.77769
G1 X48.094 Y168.049 E12.8077
G1 X47.676 Y167.248 E12.83775
G1 X47.329 Y166.414 E12.86779
G1 X47.058 Y165.553 E12.89781
G1 X46.864 Y164.671 E12.92785
G1 X46.749 Y163.775 E12.9579
G1 X46.713 Y162.873 E12.98792
G1 X46.758 Y161.971 E13.01796
G1 X46.882 Y161.076 E13.04801
G1 X47.084 Y160.196 E13.07804
G1 X47.364 Y159.337 E13.10809
G1 X47.719 Y158.507 E13.13812
G1 X48.254 Y157.546 E13.1747
G1 X48.335 Y157.404 E13.18014
G1 X49.623 Y155.251 E13.26358
G1 X50.874 Y153.023 E13.34857
G1 X52.056 Y150.769 E13.43322
G1 X53.169 Y148.493 E13.51748
G1 X54.223 Y146.173 E13.60224
G1 X55.201 Y143.849 E13.6861
G1 X56.134 Y141.446 E13.77184
G1 X56.971 Y139.086 E13.85512
G1 X57.763 Y136.639 E13.94067
G1 X58.473 Y134.217 E14.02461
G1 X59.116 Y131.768 E14.10883
G1 X59.689 Y129.3 E14.1931
G1 X60.204 Y126.769 E14.279
G1 X60.626 Y124.326 E14.36146
G1 X60.995 Y121.778 E14.44709
G1 X61.285 Y119.28 E14.53073
G1 X61.507 Y116.717 E14.6163
G1 X61.657 Y114.196 E14.7003
G1 X61.733 Y111.673 E14.78425
G1 X61.739 Y109.138 E14.86856
G1 X61.671 Y106.571 E14.95397
G1 X61.533 Y104.027 E15.03871
G1 X61.326 Y101.531 E15.12201
G1 X61.044 Y98.999 E15.20675
G1 X60.69 Y96.469 E15.29172
G1 X60.263 Y93.951 E15.37666
G1 X59.782 Y91.515 E15.45925
G1 X59.209 Y89.01 E15.54472
G1 X58.576 Y86.555 E15.62904
G1 X57.867 Y84.093 E15.71425
G1 X57.096 Y81.678 E15.79857
G1 X56.259 Y79.289 E15.88276
G1 X55.358 Y76.936 E15.96657
G1 X54.376 Y74.57 E16.05177
G1 X53.339 Y72.26 E16.13599
G1 X52.234 Y69.975 E16.22041
G1 X51.059 Y67.711 E16.30525
G1 X49.823 Y65.486 E16.3899
G1 X48.521 Y63.291 E16.47478
G1 X48.084 Y62.598 E16.50203
G1 X47.636 Y61.813 E16.5321
G1 X47.26 Y60.992 E16.56213
G1 X46.958 Y60.141 E16.59216
G1 X46.733 Y59.267 E16.62218
G1 X46.586 Y58.376 E16.65222
G1 X46.518 Y57.475 E16.68227
G1 X46.53 Y56.572 E16.7123
G1 X46.622 Y55.674 E16.74233
G1 X46.793 Y54.787 E16.77237
G1 X47.042 Y53.919 E16.80241
G1 X47.366 Y53.076 E16.83245
G1 X47.764 Y52.265 E16.86249
G1 X48.232 Y51.493 E16.89252
G1 X48.767 Y50.765 E16.92257
G1 X49.364 Y50.087 E16.95261
G1 F1500 E10.45261
G0 F6000 X26.774 Y184.782
G1 F1500 E16.95261
G1 F600 X27.659 Y184.964 E16.98267
G1 X28.524 Y185.223 E17.0127
G1 X29.363 Y185.558 E17.04275
G1 X30.169 Y185.966 E17.07279
G1 X30.935 Y186.443 E17.1028
G1 X31.657 Y186.986 E17.13285
G1 X32.327 Y187.591 E17.16288
G1 X32.941 Y188.253 E17.19291
G1 X33.495 Y188.967 E17.22297
G1 X33.983 Y189.727 E17.25301
G1 X34.402 Y190.527 E17.28304
G1 X34.748 Y191.361 E17.31307
G1 X35.02 Y192.222 E17.34311
G1 X35.214 Y193.104 E17.37314
G1 X35.329 Y194 E17.40319
G1 X35.365 Y194.902 E17.43321
G1 X35.321 Y195.804 E17.46325
G1 X35.197 Y196.699 E17.4933
G1 X34.994 Y197.579 E17.52334
G1 X34.715 Y198.438 E17.55338
G1 X34.36 Y199.269 E17.58343
G1 X33.829 Y200.225 E17.61981
G1 X32.449 Y202.537 E17.70936
G1 X31.211 Y204.743 E17.7935
G1 X30.033 Y206.989 E17.87785
G1 X28.716 Y209.695 E17.97795
G1 X28.192 Y210.816 E18.0191
G1 X27.794 Y211.583 E18.04784
G1 X27.567 Y211.978 E18.063
G1 X27.082 Y212.741 E18.09307
G1 X26.806 Y213.118 E18.10861
G1 X26.495 Y213.522 E18.12556
G1 X25.633 Y214.504 E18.16902
G1 X25.227 Y214.911 E18.18814
G1 X24.576 Y215.509 E18.21754
G1 X24.519 Y215.557 E18.22002
G1 X23.793 Y216.115 E18.25048
G1 X23.454 Y216.352 E18.26424
G1 X23.106 Y216.585 E18.27817
G1 X22.823 Y216.766 E18.28934
G1 X22.041 Y217.218 E18.31938
G1 X21.619 Y217.426 E18.33503
G1 X21.177 Y217.631 E18.35123
G1 X20.397 Y217.954 E18.37931
G1 X20.108 Y218.06 E18.38955
G1 X19.236 Y218.337 E18.41998
G1 X18.859 Y218.438 E18.43296
G1 X17.535 Y218.7 E18.47785
G1 X17.189 Y218.745 E18.48946
G1 X16.787 Y218.789 E18.50291
G1 X16.387 Y218.825 E18.51627
G1 X15.36 Y218.865 E18.55045
G1 X15.09 Y218.862 E18.55943
G1 X14.086 Y218.802 E18.59288
G1 X13.632 Y218.752 E18.60808
G1 X12.305 Y218.516 E18.6529
G1 X11.762 Y218.382 E18.67151
G1 X10.689 Y218.054 E18.70882
G1 X10.414 Y217.953 E18.71857
G1 X9.65 Y217.636 E18.74608
G1 X9.211 Y217.433 E18.76217
G1 X8.409 Y217.018 E18.7922
G1 X7.995 Y216.767 E18.8083
G1 X7.709 Y216.584 E18.8196
G1 X7.352 Y216.345 E18.83389
G1 X7.021 Y216.113 E18.84733
G1 X6.395 Y215.637 E18.87349
G1 X6.333 Y215.586 E18.87616
G1 X5.601 Y214.921 E18.90905
G1 X5.192 Y214.512 E18.92829
G1 X4.321 Y213.522 E18.97214
G1 X4.01 Y213.118 E18.9891
G1 X3.492 Y212.379 E19.01912
G1 X3.252 Y211.983 E19.03452
G1 X3.023 Y211.585 E19.04979
G1 X2.61 Y210.788 E19.07965
G1 X2.432 Y210.404 E19.09373
G1 X2.06 Y209.488 E19.12661
G1 X1.965 Y209.217 E19.13616
G1 X1.637 Y208.07 E19.17584
G1 X1.554 Y207.699 E19.18848
G1 X1.461 Y207.232 E19.20432
G1 X1.396 Y206.861 E19.21685
G1 X1.253 Y205.544 E19.26091
G1 X1.235 Y205.13 E19.27469
G1 X1.234 Y204.261 E19.30359
G1 X1.252 Y203.83 E19.31794
G1 X1.329 Y202.931 E19.34795
G1 X1.4 Y202.472 E19.3634
G1 X1.47 Y202.078 E19.37671
G1 X1.556 Y201.649 E19.39126
G1 X1.602 Y201.442 E19.39832
G1 X1.82 Y200.622 E19.42654
G1 X1.896 Y200.378 E19.43504
G1 X2.044 Y199.94 E19.45041
G1 X2.141 Y199.672 E19.45989
G1 X2.497 Y198.812 E19.49085
G1 X2.648 Y198.49 E19.50268
G1 X3.052 Y197.717 E19.53169
G1 X3.267 Y197.345 E19.54598
G1 X4.005 Y196.24 E19.59017
G1 X4.15 Y196.051 E19.5981
G1 X4.417 Y195.719 E19.61227
G1 X4.702 Y195.378 E19.62705
G1 X5.311 Y194.711 E19.65709
G1 X5.645 Y194.392 E19.67245
G1 X5.902 Y194.157 E19.68403
G1 X6.189 Y193.904 E19.69676
G1 X6.373 Y193.748 E19.70478
G1 X7.131 Y193.164 E19.73661
G1 X7.439 Y192.949 E19.7491
G1 X8.199 Y192.467 E19.77903
G1 X8.422 Y192.339 E19.78759
G1 X8.768 Y192.149 E19.80072
G1 X9.169 Y191.939 E19.81577
G1 X9.495 Y191.776 E19.82789
G1 X10.636 Y191.23 E19.86996
G1 X11.078 Y191.021 E19.88623
G1 X13.394 Y189.857 E19.97244
G1 X15.615 Y188.662 E20.05632
G1 X17.838 Y187.383 E20.14162
G1 X19.833 Y186.159 E20.21947
G1 X20.623 Y185.721 E20.24952
G1 X21.448 Y185.355 E20.27953
G1 X22.303 Y185.064 E20.30957
G1 X23.18 Y184.849 E20.33961
G1 X24.073 Y184.713 E20.36965
G1 X24.974 Y184.656 E20.39968
G1 X25.877 Y184.679 E20.42972
G1 X26.774 Y184.782 E20.45975
G1 F1500 E13.95975
G0 F6000 X187.784 Y187.846
G1 F1500 E20.45975
G1 F600 X188.438 Y187.223 E20.48979
G1 X189.145 Y186.661 E20.51983
G1 X189.899 Y186.163 E20.54989
G1 X190.693 Y185.734 E20.5799
G1 X191.523 Y185.377 E20.60995
G1 X192.381 Y185.095 E20.63999
G1 X193.26 Y184.89 E20.67001
G1 X194.154 Y184.763 E20.70005
G1 X195.056 Y184.716 E20.73009
G1 X195.959 Y184.749 E20.76014
G1 X196.855 Y184.862 E20.79018
G1 X197.738 Y185.053 E20.82023
G1 X198.6 Y185.322 E20.85026
G1 X199.435 Y185.666 E20.8803
G1 X200.504 Y186.243 E20.9207
G1 X201.664 Y186.961 E20.96608
G1 X203.882 Y188.25 E21.0514
G1 X206.082 Y189.448 E21.13472
G1 X208.393 Y190.622 E21.22093
G1 X209.899 Y191.344 E21.27648
G1 X210.965 Y191.843 E21.31563
G1 X211.719 Y192.235 E21.34389
G1 X212.055 Y192.428 E21.35678
G1 X212.826 Y192.918 E21.38716
G1 X213.133 Y193.133 E21.39963
G1 X213.857 Y193.69 E21.43001
G1 X214.042 Y193.846 E21.43806
G1 X214.369 Y194.133 E21.45253
G1 X214.554 Y194.303 E21.46089
G1 X215.176 Y194.927 E21.49019
G1 X215.425 Y195.199 E21.50246
G1 X215.991 Y195.874 E21.53176
G1 X216.216 Y196.167 E21.54404
G1 X216.718 Y196.881 E21.57307
G1 X216.933 Y197.217 E21.58634
G1 X217.407 Y198.041 E21.61796
G1 X217.49 Y198.202 E21.62398
G1 X217.849 Y198.976 E21.65236
G1 X218.053 Y199.469 E21.67011
G1 X218.356 Y200.303 E21.69962
G1 X218.385 Y200.395 E21.70283
G1 X218.611 Y201.232 E21.73166
G1 X218.699 Y201.625 E21.74506
G1 X218.789 Y202.077 E21.76039
G1 X218.858 Y202.467 E21.77356
G1 X218.991 Y203.561 E21.81021
G1 X219.01 Y203.844 E21.81965
G1 X219.033 Y204.527 E21.84238
G1 X219.033 Y204.699 E21.8481
G1 X218.991 Y205.619 E21.87873
G1 X218.947 Y206.105 E21.89496
G1 X218.837 Y206.94 E21.92297
G1 X218.764 Y207.358 E21.93709
G1 X218.515 Y208.433 E21.97379
G1 X218.435 Y208.71 E21.98338
G1 X218.065 Y209.769 E22.02069
G1 X217.926 Y210.106 E22.03281
G1 X217.749 Y210.511 E22.04751
G1 X217.581 Y210.873 E22.06079
G1 X216.931 Y212.06 E22.1058
G1 X216.729 Y212.377 E22.1183
G1 X216.223 Y213.101 E22.14768
G1 X215.944 Y213.465 E22.16293
G1 X215.069 Y214.464 E22.2071
G1 X214.664 Y214.87 E22.22618
G1 X214.026 Y215.458 E22.25503
G1 X213.968 Y215.507 E22.25756
G1 X213.229 Y216.075 E22.28856
G1 X212.89 Y216.312 E22.30232
G1 X212.542 Y216.545 E22.31625
G1 X212.259 Y216.726 E22.32742
G1 X211.076 Y217.376 E22.37231
G1 X210.746 Y217.53 E22.38443
G1 X210.358 Y217.702 E22.39854
G1 X210.015 Y217.845 E22.4109
G1 X209.06 Y218.188 E22.44465
G1 X208.991 Y218.209 E22.44705
G1 X208.236 Y218.408 E22.47302
G1 X207.836 Y218.497 E22.48665
G1 X207.394 Y218.585 E22.50164
G1 X207.037 Y218.648 E22.5137
G1 X205.705 Y218.793 E22.55826
G1 X205.289 Y218.811 E22.57211
G1 X204.417 Y218.812 E22.60111
G1 X203.991 Y218.794 E22.61529
G1 X203.092 Y218.716 E22.64531
G1 X202.645 Y218.647 E22.66035
G1 X202.289 Y218.584 E22.67237
G1 X201.862 Y218.499 E22.68686
G1 X201.478 Y218.414 E22.69994
G1 X200.603 Y218.179 E22.73007
G1 X200.483 Y218.141 E22.73426
G1 X199.631 Y217.829 E22.76444
G1 X199.145 Y217.626 E22.78195
G1 X198.45 Y217.304 E22.80743
G1 X198.338 Y217.247 E22.81161
